casedrop/img/case/case-final/icons/wallet-white.svg

<svg width="19" height="19" viewBox="0 0 19 19" fill="none" xmlns="http://www.w3.org/2000/svg">
<path d="M13.6562 11.875C13.9842 11.875 14.25 11.6092 14.25 11.2812C14.25 10.9533 13.9842 10.6875 13.6562 10.6875C13.3283 10.6875 13.0625 10.9533 13.0625 11.2812C13.0625 11.6092 13.3283 11.875 13.6562 11.875Z" fill="white"/>
<path d="M18.4064 9.50006H17.8126V4.75006C17.8126 4.09367 17.2815 3.56256 16.6251 3.56256V2.37506C16.6251 1.97636 16.5052 1.66701 16.2674 1.45504C15.9153 1.14095 15.4551 1.18489 15.4076 1.18904C15.3863 1.19112 14.9671 1.23417 14.2828 1.30482L14.0925 0.782028C13.868 0.165121 13.1873 -0.152238 12.5704 0.0721995L7.16402 2.03989C4.61208 2.305 2.19611 2.55793 1.15497 2.67372C0.282452 2.7705 0.0185301 3.83212 0.000123836 4.44428C-0.00106366 4.48406 0.00635821 4.52236 0.0194207 4.55709C0.00932696 4.62003 0.000123836 4.68386 0.000123836 4.75006V17.8126C0.000123836 18.4689 0.531233 19.0001 1.18762 19.0001H16.6251C17.2815 19.0001 17.8126 18.4689 17.8126 17.8126V13.0626H18.4064C18.7344 13.0626 19.0001 12.7969 19.0001 12.4688V10.0938C19.0001 9.76576 18.7344 9.50006 18.4064 9.50006ZM16.3283 5.34381C16.4924 5.34381 16.6251 5.47651 16.6251 5.64068C16.6251 5.80486 16.4924 5.93756 16.3283 5.93756H15.7345C15.5703 5.93756 15.4376 5.80486 15.4376 5.64068C15.4376 5.47651 15.5703 5.34381 15.7345 5.34381H16.3283ZM14.8439 5.64068C14.8439 5.80486 14.7112 5.93756 14.547 5.93756H13.9532C13.7891 5.93756 13.6564 5.80486 13.6564 5.64068C13.6564 5.47651 13.7891 5.34381 13.9532 5.34381H14.547C14.7112 5.34381 14.8439 5.47651 14.8439 5.64068ZM2.07825 17.2188H1.4845C1.32033 17.2188 1.18762 17.0861 1.18762 16.9219C1.18762 16.7578 1.32033 16.6251 1.4845 16.6251H2.07825C2.24242 16.6251 2.37512 16.7578 2.37512 16.9219C2.37512 17.0861 2.24242 17.2188 2.07825 17.2188ZM2.07825 5.93756H1.4845C1.32033 5.93756 1.18762 5.80486 1.18762 5.64068C1.18762 5.47651 1.32033 5.34381 1.4845 5.34381H2.07825C2.24242 5.34381 2.37512 5.47651 2.37512 5.64068C2.37512 5.80486 2.24242 5.93756 2.07825 5.93756ZM3.8595 17.2188H3.26575C3.10158 17.2188 2.96887 17.0861 2.96887 16.9219C2.96887 16.7578 3.10158 16.6251 3.26575 16.6251H3.8595C4.02367 16.6251 4.15637 16.7578 4.15637 16.9219C4.15637 17.0861 4.02367 17.2188 3.8595 17.2188ZM3.8595 5.93756H3.26575C3.10158 5.93756 2.96887 5.80486 2.96887 5.64068C2.96887 5.47651 3.10158 5.34381 3.26575 5.34381H3.8595C4.02367 5.34381 4.15637 5.47651 4.15637 5.64068C4.15637 5.80486 4.02367 5.93756 3.8595 5.93756ZM5.64075 17.2188H5.047C4.88283 17.2188 4.75012 17.0861 4.75012 16.9219C4.75012 16.7578 4.88283 16.6251 5.047 16.6251H5.64075C5.80492 16.6251 5.93762 16.7578 5.93762 16.9219C5.93762 17.0861 5.80492 17.2188 5.64075 17.2188ZM5.64075 5.93756H5.047C4.88283 5.93756 4.75012 5.80486 4.75012 5.64068C4.75012 5.47651 4.88283 5.34381 5.047 5.34381H5.64075C5.80492 5.34381 5.93762 5.47651 5.93762 5.64068C5.93762 5.80486 5.80492 5.93756 5.64075 5.93756ZM7.422 17.2188H6.82825C6.66408 17.2188 6.53137 17.0861 6.53137 16.9219C6.53137 16.7578 6.66408 16.6251 6.82825 16.6251H7.422C7.58617 16.6251 7.71887 16.7578 7.71887 16.9219C7.71887 17.0861 7.58617 17.2188 7.422 17.2188ZM7.422 5.93756H6.82825C6.66408 5.93756 6.53137 5.80486 6.53137 5.64068C6.53137 5.47651 6.66408 5.34381 6.82825 5.34381H7.422C7.58617 5.34381 7.71887 5.47651 7.71887 5.64068C7.71887 5.80486 7.58617 5.93756 7.422 5.93756ZM9.20325 17.2188H8.6095C8.44533 17.2188 8.31262 17.0861 8.31262 16.9219C8.31262 16.7578 8.44533 16.6251 8.6095 16.6251H9.20325C9.36742 16.6251 9.50012 16.7578 9.50012 16.9219C9.50012 17.0861 9.36742 17.2188 9.20325 17.2188ZM9.20325 5.93756H8.6095C8.44533 5.93756 8.31262 5.80486 8.31262 5.64068C8.31262 5.47651 8.44533 5.34381 8.6095 5.34381H9.20325C9.36742 5.34381 9.50012 5.47651 9.50012 5.64068C9.50012 5.80486 9.36742 5.93756 9.20325 5.93756ZM9.30716 3.56256H4.71598L12.7735 0.630028C13.0819 0.517809 13.4224 0.676637 13.5347 0.984793L14.4728 3.56256H12.6624C12.4172 2.87143 11.7596 2.37506 10.9845 2.37506C10.2094 2.37506 9.55178 2.87143 9.30716 3.56256ZM13.0626 5.64068C13.0626 5.80486 12.9299 5.93756 12.7657 5.93756H12.172C12.0078 5.93756 11.8751 5.80486 11.8751 5.64068C11.8751 5.47651 12.0078 5.34381 12.172 5.34381H12.7657C12.9299 5.34381 13.0626 5.47651 13.0626 5.64068ZM10.9845 2.96881C11.423 2.96881 11.8015 3.20928 12.0072 3.56256H9.96147C10.1675 3.20928 10.546 2.96881 10.9845 2.96881ZM10.9845 17.2188H10.3907C10.2266 17.2188 10.0939 17.0861 10.0939 16.9219C10.0939 16.7578 10.2266 16.6251 10.3907 16.6251H10.9845C11.1487 16.6251 11.2814 16.7578 11.2814 16.9219C11.2814 17.0861 11.1487 17.2188 10.9845 17.2188ZM10.9845 5.93756H10.3907C10.2266 5.93756 10.0939 5.80486 10.0939 5.64068C10.0939 5.47651 10.2266 5.34381 10.3907 5.34381H10.9845C11.1487 5.34381 11.2814 5.47651 11.2814 5.64068C11.2814 5.80486 11.1487 5.93756 10.9845 5.93756ZM12.7657 17.2188H12.172C12.0078 17.2188 11.8751 17.0861 11.8751 16.9219C11.8751 16.7578 12.0078 16.6251 12.172 16.6251H12.7657C12.9299 16.6251 13.0626 16.7578 13.0626 16.9219C13.0626 17.0861 12.9299 17.2188 12.7657 17.2188ZM14.547 17.2188H13.9532C13.7891 17.2188 13.6564 17.0861 13.6564 16.9219C13.6564 16.7578 13.7891 16.6251 13.9532 16.6251H14.547C14.7112 16.6251 14.8439 16.7578 14.8439 16.9219C14.8439 17.0861 14.7112 17.2188 14.547 17.2188ZM16.3283 17.2188H15.7345C15.5703 17.2188 15.4376 17.0861 15.4376 16.9219C15.4376 16.7578 15.5703 16.6251 15.7345 16.6251H16.3283C16.4924 16.6251 16.6251 16.7578 16.6251 16.9219C16.6251 17.0861 16.4924 17.2188 16.3283 17.2188ZM18.4064 12.1719C18.4064 12.3361 18.2737 12.4688 18.1095 12.4688H12.7657C12.6016 12.4688 12.4689 12.3361 12.4689 12.1719V10.3907C12.4689 10.2265 12.6016 10.0938 12.7657 10.0938H18.1095C18.2737 10.0938 18.4064 10.2265 18.4064 10.3907V12.1719Z" fill="white"/>
</svg>

<svg width="19" height="19" fill="none" xmlns="http://www.w3.org/2000/svg"><path d="M13.656 11.875a.594.594 0 100-1.187.594.594 0 000 1.187z" fill="#fff"/><path d="M18.406 9.5h-.593V4.75c0-.656-.531-1.187-1.188-1.187V2.375c0-.399-.12-.708-.358-.92-.352-.314-.812-.27-.86-.266l-1.124.116-.19-.523a1.187 1.187 0 00-1.523-.71L7.164 2.04c-2.552.265-4.968.518-6.009.634C.282 2.77.019 3.832 0 4.444a.296.296 0 00.02.113C.01 4.62 0 4.684 0 4.75v13.063C0 18.469.531 19 1.188 19h15.437c.657 0 1.188-.531 1.188-1.187v-4.75h.593a.594.594 0 00.594-.594v-2.375a.594.594 0 00-.594-.594zm-2.078-4.156a.297.297 0 110 .594h-.593a.297.297 0 110-.594h.593zm-1.484.297a.297.297 0 01-.297.297h-.594a.297.297 0 110-.594h.594c.164 0 .297.133.297.297zM2.078 17.219h-.593a.297.297 0 110-.594h.593a.297.297 0 110 .594zm0-11.281h-.593a.297.297 0 110-.594h.593a.297.297 0 110 .594zm1.782 11.28h-.594a.297.297 0 110-.593h.594a.297.297 0 110 .594zm0-11.28h-.594a.297.297 0 110-.594h.594a.297.297 0 110 .594zm1.78 11.28h-.593a.297.297 0 110-.593h.594a.297.297 0 110 .594zm0-11.28h-.593a.297.297 0 110-.594h.594a.297.297 0 110 .594zm1.782 11.28h-.594a.297.297 0 110-.593h.594a.297.297 0 110 .594zm0-11.28h-.594a.297.297 0 110-.594h.594a.297.297 0 110 .594zm1.781 11.28H8.61a.297.297 0 110-.593h.593a.297.297 0 110 .594zm0-11.28H8.61a.297.297 0 110-.594h.593a.297.297 0 110 .594zm.104-2.375H4.716L12.774.63a.594.594 0 01.76.355l.939 2.578h-1.81a1.78 1.78 0 00-3.355 0zm3.756 2.078a.297.297 0 01-.297.297h-.594a.297.297 0 110-.594h.594c.164 0 .297.133.297.297zm-2.079-2.672c.439 0 .818.24 1.023.594H9.961a1.183 1.183 0 011.024-.594zm0 14.25h-.593a.297.297 0 110-.594h.594a.297.297 0 110 .594zm0-11.281h-.593a.297.297 0 110-.594h.594a.297.297 0 110 .594zm1.782 11.28h-.594a.297.297 0 110-.593h.594a.297.297 0 110 .594zm1.781 0h-.594a.297.297 0 110-.593h.594a.297.297 0 110 .594zm1.781 0h-.593a.297.297 0 110-.593h.593a.297.297 0 110 .594zm2.078-5.046a.297.297 0 01-.296.297h-5.344a.297.297 0 01-.297-.297V10.39c0-.165.133-.297.297-.297h5.344c.164 0 .296.133.296.297v1.78z" fill="#fff"/></svg>
